icons/1_Primary/Pionex.svg

<svg width="1024" height="1024" fill="none" xmlns="http://www.w3.org/2000/svg"><g clip-path="url(#a)"><path d="M512 1024c282.77 0 512-229.23 512-512S794.77 0 512 0 0 229.23 0 512s229.23 512 512 512Z" fill="#F8C18C"/><path d="M767 436.61c0-78.503-63.64-142.14-142.14-142.14H338.84l45.03 83.136c19.692 36.357 57.718 59.006 99.066 59.006m284.07 0c0 78.504-63.64 142.14-142.14 142.14l-93.846-.015-47.703 88.107c-20.924 38.633-61.33 62.698-105.27 62.696l-121.04-.012 126.86-233.91c19.692-36.357 57.718-59.007 99.066-59.007" fill="#fff"/></g><defs><clipPath id="a"><path fill="#fff" d="M0 0h1024v1024H0z"/></clipPath></defs></svg>

<svg width="1024" height="1024" viewBox="0 0 1024 1024" fill="none" xmlns="http://www.w3.org/2000/svg">
<g clip-path="url(#clip0_2_3138)">
<path d="M512 1024C794.77 1024 1024 794.77 1024 512C1024 229.23 794.77 0 512 0C229.23 0 0 229.23 0 512C0 794.77 229.23 1024 512 1024Z" fill="#F8C18C"/>
<path d="M767 436.61C767 358.107 703.36 294.47 624.86 294.47H338.84L383.87 377.606C403.562 413.963 441.588 436.612 482.936 436.612M767.006 436.612C767.006 515.116 703.366 578.752 624.866 578.752L531.02 578.737L483.317 666.844C462.393 705.477 421.987 729.542 378.047 729.54L257.007 729.528L383.867 495.618C403.559 459.261 441.585 436.611 482.933 436.611" fill="white"/>
</g>
<defs>
<clipPath id="clip0_2_3138">
<rect width="1024" height="1024" fill="white"/>
</clipPath>
</defs>
</svg>
